X: 40057
T: Throw Away The Keys
R: reel
M: 4/4
K: Dmajor
|:A2FA defg|agfd efdB|A2FA defe|dBAG FDD2:|
faaf defg|agfd efde|faaf defe|dBAG FDD2|
faaf defg|agfd efdB|A2FA defe|dBAG FDD2||

